X:198
T:Saint Patrick’s Day in the Morning. RH.198
R:jig
S:Rev.R.Harrison’s MS,c1815,Cumbria
O:England
A:Temple Sowerby,Cumbria
Z:vmp.Simon Wilson. Review PJH, 2008.
M:6/8
L:1/8
Q:3/8=120
K:G
D|GAG GAB|ded dBG|BAB AFD|EFE E2D|!
GAG GAB|ded dBG|BAB AFD|E3 G2:|!
|:e|def g2e|fed edB|def g2e|afd e2f|!
def g2e|f2d efg|dBG GAB|ded dBG|\
BAB AFD|!
EFE E2D|GAG GAB|ded dBG|\
BAB AFD|D3G2:|

